azure-patterns/svg-azure-cloud.svg

<svg xmlns="http://www.w3.org/2000/svg" viewBox="0 0 193 115">
                                
                            
<path fill-rule="evenodd" clip-rule="evenodd" d="M163.884 57.0249C159.599 57.0249 155.543 57.9703 151.879 59.6259C153.707 54.7934 154.753 49.5795 154.753 44.11C154.753 19.7485 134.917 0 110.447 0C89.3398 0 71.7128 14.7085 67.2579 34.3827C62.8777 29.8765 56.749 27.0644 49.9527 27.0644C36.6433 27.0644 25.8536 37.8055 25.8536 51.0575C25.8536 51.2591 25.8789 51.4534 25.8837 51.6538C11.1307 54.5463 0 67.484 0 83.0204C0 100.684 14.3806 115 32.1209 115H163.884C179.964 115 193 102.023 193 86.0125C193 70.0034 179.964 57.0249 163.884 57.0249" fill="white"></path>
<path fill-rule="evenodd" clip-rule="evenodd" d="M18.4405 28.003L37.97 51.2877L0 58H62L28.6058 0L18.4405 28.003Z" transform="translate(77 39)" fill="#0078D4"></path>
<path fill-rule="evenodd" clip-rule="evenodd" d="M20.7567 20.2217L0 55.9433H18.715V56L45 0L20.7567 20.2217Z" transform="translate(59 35)" fill="#0078D4"></path>
</svg>

<svg xmlns="http://www.w3.org/2000/svg" viewBox="0 0 193 115"><path fill-rule="evenodd" clip-rule="evenodd" d="M163.884 57.025c-4.285 0-8.341.945-12.005 2.6 1.828-4.832 2.874-10.045 2.874-15.515 0-24.361-19.836-44.11-44.306-44.11-21.107 0-38.734 14.709-43.19 34.383-4.38-4.507-10.508-7.319-17.304-7.319-13.31 0-24.1 10.742-24.1 23.993 0 .202.026.396.03.597C11.132 54.546 0 67.484 0 83.02 0 100.684 14.38 115 32.12 115h131.764C179.964 115 193 102.023 193 86.013c0-16.01-13.036-28.988-29.116-28.988" fill="#fff"/><path fill-rule="evenodd" clip-rule="evenodd" d="M95.44 67.003l19.53 23.285L77 97h62l-33.394-58L95.44 67.003zM79.757 55.222L59 90.943h18.715V91L104 35 79.757 55.222z" fill="#0078D4"/></svg>
